svg/u1f590_1f3fb.svg

<svg viewBox="0 0 128 128" xmlns="http://www.w3.org/2000/svg" xmlns:xlink="http://www.w3.org/1999/xlink">
  <radialGradient id="c" cx="56.533" cy="33.205" gradientUnits="userSpaceOnUse" r="92.59">
    <stop offset=".3588" stop-color="#F9DDBD"/>
    <stop offset=".8824" stop-color="#EDC391"/>
  </radialGradient>
  <path d="m53.84 122.41c-11.51 0-20.35-2.95-26.27-8.76-5.64-5.54-6.9-12.09-7.18-14.66-0.92-8.4-2.98-28.82-3-29.02l-3.86-32.07c-0.4-2.55 0.07-4.74 1.3-6.22 1-1.2 2.49-1.87 4.31-1.91h0.16c1.79 0 4.33 0.69 5.6 6.63l4.04 18.8c0.33 1.52 1.7 2.63 3.25 2.63 0.1 0 0.19 0 0.29-0.01 1.8-0.16 3.14-1.7 3.04-3.5-0.39-6.82-1.65-29.39-1.65-33.39 0-6.69 2.81-7.7 5.25-7.83 0.12-0.01 0.24-0.01 0.36-0.01 5.11 0 5.81 6.34 5.9 7.62 0.3 4.27 2.82 33.89 2.84 34.19 0.1 1.75 1.53 3.16 3.25 3.16h0.17c1.78-0.09 3.14-1.58 3.14-3.39l1-41.51c0-3.76 2.03-7.54 5.9-7.54 0.32 0 0.66 0.03 1 0.08 3.58 0.55 4.86 4.34 4.86 7.7l1 41.89c0 1.28 1.01 2.34 2.29 2.38 1.29 0 2.29-0.93 2.42-2.17l4.38-35.73c0.34-3.47 2.3-6.97 5.91-7.05h0.16c1.72 0 3.13 0.6 4.2 1.77 1.38 1.52 2.02 3.88 1.77 6.48-0.03 0.42-3.22 40.05-4.2 50.76-0.09 0.95 0.21 1.85 0.85 2.54 0.64 0.7 1.54 1.1 2.48 1.1 0.79 0 1.54-0.28 2.15-0.81 1.69-1.47 3.58-3.88 5.4-6.21 2.19-2.8 4.92-6.29 6.43-6.73 1.79-0.52 3.57-0.78 5.32-0.78 2.99 0 5.48 0.79 6.67 2.11 0.77 0.85 1.19 3.55 0.58 5.76-0.21 0.75-0.72 2.07-1.81 2.42-6.67 2.09-16.61 16.06-20.31 23.3-0.65 1.28-1.21 2.79-1.86 4.53-3.49 9.31-8.75 23.45-37.53 23.45z" fill="url(#c)"/>
  <path d="m61.67 7.09c0.25 0 0.5 0.02 0.77 0.06 3.42 0.53 3.59 5.27 3.59 6.22v0.07l1 41.83c0.02 2.11 1.66 3.8 3.77 3.86h0.11c1.97 0 3.6-1.49 3.82-3.48l4.38-35.74c0-0.02 0.01-0.05 0.01-0.07 0.27-2.77 1.75-5.6 4.45-5.66h0.13c1.28 0 2.32 0.43 3.09 1.28 1.09 1.21 1.6 3.15 1.39 5.33v0.05c-0.03 0.4-3.22 40.02-4.19 50.72-0.12 1.37 0.31 2.68 1.23 3.69s2.23 1.59 3.59 1.59c1.14 0 2.26-0.42 3.13-1.18 1.8-1.56 3.65-3.92 5.59-6.42 1.69-2.17 4.53-5.8 5.67-6.22 1.63-0.47 3.32-0.72 4.9-0.72 3.03 0 4.88 0.87 5.54 1.6 0.36 0.47 0.81 2.7 0.2 4.59-0.23 0.72-0.54 1.1-0.75 1.17-7.41 2.32-17.62 17.05-21.19 24.05-0.69 1.36-1.3 2.98-1.93 4.69-1.68 4.51-3.77 10.13-8.78 14.57-6.02 5.35-14.96 7.94-27.33 7.94-11.11 0-19.59-2.8-25.22-8.33-5.29-5.2-6.48-11.35-6.74-13.75-0.92-8.39-2.98-28.81-3-29.01 0-0.02 0-0.04-0.01-0.06l-3.86-32.05c0-0.04-0.01-0.07-0.01-0.11-0.32-2.03 0.04-3.85 0.98-4.98 0.73-0.88 1.81-1.34 3.2-1.37h0.12c0.89 0 2.97 0 4.14 5.44l4.04 18.8c0.47 2.21 2.46 3.82 4.72 3.82 0.14 0 0.28-0.01 0.42-0.02 2.62-0.23 4.55-2.46 4.4-5.08-0.79-14.01-1.64-30.12-1.64-33.31 0-6.13 2.4-6.26 3.83-6.34 0.09-0.01 0.19-0.01 0.28-0.01 3.78 0 4.33 5.18 4.4 6.22 0.3 4.25 2.7 32.54 2.84 34.18 0.17 2.56 2.25 4.56 4.75 4.56 0.08 0 0.16 0 0.28-0.01 2.52-0.13 4.5-2.26 4.52-4.85l1-41.52v-0.07c0-1.79 0.49-3.39 1.37-4.5 0.76-0.97 1.78-1.47 3-1.47m0-3c-4.49 0-7.4 4.03-7.4 9l-1 41.54c0 1.01-0.74 1.84-1.68 1.89h-0.03-0.09c-0.93 0-1.7-0.78-1.76-1.78 0 0-2.54-29.86-2.84-34.16-0.29-4.19-2.4-9.01-7.39-9.01-0.14 0-0.29 0-0.44 0.01-5.31 0.29-6.67 4.52-6.67 9.33 0 4.11 1.28 26.91 1.65 33.48 0.06 0.99-0.68 1.84-1.67 1.92-0.05 0-0.11 0.01-0.16 0.01-0.85 0-1.6-0.6-1.79-1.44l-4.04-18.8c-0.98-4.59-3.01-7.81-7.07-7.81h-0.2c-5.23 0.13-7.9 4.48-7.06 9.81l3.86 32.05s2.07 20.54 3 29.04 7.74 24.75 34.94 24.75c35.1 0 36.64-20.86 40.71-28.84 3.79-7.43 13.56-20.71 19.42-22.55 3.79-1.19 3.81-8.48 1.89-10.61-1.49-1.65-4.37-2.61-7.78-2.61-1.8 0-3.76 0.27-5.73 0.84-3.35 0.97-8.52 9.9-12.39 13.25-0.36 0.31-0.77 0.45-1.17 0.45-1 0-1.94-0.84-1.83-2 0.99-10.85 4.2-50.75 4.2-50.75 0.52-5.31-2.29-9.9-7.46-9.9h-0.2c-4.2 0.09-6.92 3.88-7.37 8.37l-4.38 35.77c-0.05 0.47-0.41 0.82-0.84 0.82h-0.02-0.02c-0.46-0.01-0.83-0.42-0.83-0.91l-1-41.86c0-4.51-1.98-8.54-6.13-9.18-0.42-0.09-0.83-0.12-1.23-0.12z" fill="#E6B77E"/>
  <defs>
    <path id="b" d="m115.87 61.91c-2.27-2.53-7.81-3.42-13.52-1.77-4.43 1.28-12.04 16.46-15.61 14.3 0.09-2.35 5.21-53.33 5.21-53.33 0.53-5.38-3.47-10.15-8.7-9.94-4.2 0.17-7.55 3.84-7.99 8.33l-3.52 35.74c-0.04 0.49-0.41 0.76-0.86 0.76h-0.02c-0.45 0-0.86-0.28-0.86-0.78v-41.85c0-4.51-3.1-8.54-7.26-9.18-5.18-0.81-9.74 3.49-9.74 8.9v41.54c0 1.01-0.6 1.84-1.54 1.89h0.04c-0.97 0.05-1.75-0.74-1.81-1.78l-1.89-34.18c-0.25-4.5-3.44-8.34-7.62-8.71-5.21-0.47-9.4 4.1-9.1 9.5l1.94 34.83c0.04 0.75-0.56 1.36-1.26 1.28h-0.02c-0.5-0.06-0.9-0.47-0.98-1.01l-3.19-20.4c-0.7-4.45-4.25-7.89-8.45-7.79-5.23 0.13-8.95 5.16-8.11 10.49l4.91 31.36s2.07 20.54 3 29.04 7.74 24.75 34.94 24.75c35.1 0 36.64-20.86 40.71-28.84 3.79-7.43 13.56-20.71 19.42-22.55 3.77-1.17 3.8-8.47 1.88-10.6z"/>
  </defs>
  <clipPath id="a">
    <use xlink:href="#b"/>
  </clipPath>
  <g clip-path="url(#a)">
    <path d="m90.13 69.44c-13.93 1.99-22.62 14.58-26.56 28.05-0.54 1.86 1.29 2.44 1.83 0.58 3.68-12.55 14.35-21.64 27.26-23.48 1.9-0.27 1.09-3.16-0.8-2.89l-1.73-2.26z" fill="#E6B77E"/>
  </g>
</svg>

<svg viewBox="0 0 128 128" xmlns="http://www.w3.org/2000/svg">
  <defs>
    <radialGradient id="c" cx="56.533" cy="33.205" gradientUnits="userSpaceOnUse" r="92.59">
      <stop offset=".3588" stop-color="#F9DDBD"/>
      <stop offset=".8824" stop-color="#EDC391"/>
    </radialGradient>
  </defs>
  <path d="M53.84,122.41 C42.33,122.41 33.49,119.46 27.57,113.65 C21.93,108.11 20.67,101.56 20.39,98.99 C19.47,90.59 17.41,70.17 17.39,69.97 L13.53,37.9 C13.13,35.35 13.6,33.16 14.83,31.68 C15.83,30.48 17.32,29.81 19.14,29.77 L19.3,29.77 C21.09,29.77 23.63,30.46 24.9,36.4 L28.94,55.2 C29.27,56.72 30.64,57.83 32.19,57.83 C32.29,57.83 32.38,57.83 32.48,57.82 C34.28,57.66 35.62,56.12 35.52,54.32 C35.13,47.5 33.87,24.93 33.87,20.93 C33.87,14.24 36.68,13.23 39.12,13.1 C39.24,13.09 39.36,13.09 39.48,13.09 C44.59,13.09 45.29,19.43 45.38,20.71 C45.68,24.98 48.2,54.6 48.22,54.9 C48.32,56.65 49.75,58.06 51.47,58.06 L51.64,58.06 C53.42,57.97 54.78,56.48 54.78,54.67 L55.78,13.16 C55.78,9.4 57.81,5.62 61.68,5.62 C62,5.62 62.34,5.65 62.68,5.7 C66.26,6.25 67.54,10.04 67.54,13.4 L68.54,55.29 C68.54,56.57 69.55,57.63 70.83,57.67 C72.12,57.67 73.12,56.74 73.25,55.5 L77.63,19.77 C77.97,16.3 79.93,12.8 83.54,12.72 L83.7,12.72 C85.42,12.72 86.83,13.32 87.9,14.49 C89.28,16.01 89.92,18.37 89.67,20.97 C89.64,21.39 86.45,61.02 85.47,71.73 C85.38,72.68 85.68,73.58 86.32,74.27 C86.96,74.97 87.86,75.37 88.8,75.37 C89.59,75.37 90.34,75.09 90.95,74.56 C92.64,73.09 94.53,70.68 96.35,68.35 C98.54,65.55 101.27,62.06 102.78,61.62 C104.57,61.1 106.35,60.84 108.1,60.84 C111.09,60.84 113.58,61.63 114.77,62.95 C115.54,63.8 115.96,66.5 115.35,68.71 C115.14,69.46 114.63,70.78 113.54,71.13 C106.87,73.22 96.93,87.19 93.23,94.43 C92.58,95.71 92.02,97.22 91.37,98.96 C87.88,108.27 82.62,122.41 53.84,122.41 Z" fill="url(#c)"/>
  <path d="M61.67,7.09 C61.92,7.09 62.17,7.11 62.44,7.15 C65.86,7.68 66.03,12.42 66.03,13.37 L66.03,13.44 L67.03,55.27 C67.05,57.38 68.69,59.07 70.8,59.13 L70.91,59.13 C72.88,59.13 74.51,57.64 74.73,55.65 L79.11,19.91 C79.11,19.89 79.12,19.86 79.12,19.84 C79.39,17.07 80.87,14.24 83.57,14.18 L83.7,14.18 C84.98,14.18 86.02,14.61 86.79,15.46 C87.88,16.67 88.39,18.61 88.18,20.79 L88.18,20.84 C88.15,21.24 84.96,60.86 83.99,71.56 C83.87,72.93 84.3,74.24 85.22,75.25 C86.14,76.26 87.45,76.84 88.81,76.84 C89.95,76.84 91.07,76.42 91.94,75.66 C93.74,74.1 95.59,71.74 97.53,69.24 C99.22,67.07 102.06,63.44 103.2,63.02 C104.83,62.55 106.52,62.3 108.1,62.3 C111.13,62.3 112.98,63.17 113.64,63.9 C114,64.37 114.45,66.6 113.84,68.49 C113.61,69.21 113.3,69.59 113.09,69.66 C105.68,71.98 95.47,86.71 91.9,93.71 C91.21,95.07 90.6,96.69 89.97,98.4 C88.29,102.91 86.2,108.53 81.19,112.97 C75.17,118.32 66.23,120.91 53.86,120.91 C42.75,120.91 34.27,118.11 28.64,112.58 C23.35,107.38 22.16,101.23 21.9,98.83 C20.98,90.44 18.92,70.02 18.9,69.82 C18.9,69.8 18.9,69.78 18.89,69.76 L15.03,37.71 C15.03,37.67 15.02,37.64 15.02,37.6 C14.7,35.57 15.06,33.75 16,32.62 C16.73,31.74 17.81,31.28 19.2,31.25 L19.32,31.25 C20.21,31.25 22.29,31.25 23.46,36.69 L27.5,55.49 C27.97,57.7 29.96,59.31 32.22,59.31 C32.36,59.31 32.5,59.3 32.64,59.29 C35.26,59.06 37.19,56.83 37.04,54.21 C36.25,40.2 35.4,24.09 35.4,20.9 C35.4,14.77 37.8,14.64 39.23,14.56 C39.32,14.55 39.42,14.55 39.51,14.55 C43.29,14.55 43.84,19.73 43.91,20.77 C44.21,25.02 46.61,53.31 46.75,54.95 C46.92,57.51 49,59.51 51.5,59.51 C51.58,59.51 51.66,59.51 51.78,59.5 C54.3,59.37 56.28,57.24 56.3,54.65 L57.3,13.13 L57.3,13.06 C57.3,11.27 57.79,9.67 58.67,8.56 C59.43,7.59 60.45,7.09 61.67,7.09 M61.67,4.09 C57.18,4.09 54.27,8.12 54.27,13.09 L53.27,54.63 C53.27,55.64 52.53,56.47 51.59,56.52 L51.56,56.52 L51.47,56.52 C50.54,56.52 49.77,55.74 49.71,54.74 C49.71,54.74 47.17,24.88 46.87,20.58 C46.58,16.39 44.47,11.57 39.48,11.57 C39.34,11.57 39.19,11.57 39.04,11.58 C33.73,11.87 32.37,16.1 32.37,20.91 C32.37,25.02 33.65,47.82 34.02,54.39 C34.08,55.38 33.34,56.23 32.35,56.31 C32.3,56.31 32.24,56.32 32.19,56.32 C31.34,56.32 30.59,55.72 30.4,54.88 L26.36,36.08 C25.38,31.49 23.35,28.27 19.29,28.27 L19.09,28.27 C13.86,28.4 11.19,32.75 12.03,38.08 L15.89,70.13 C15.89,70.13 17.96,90.67 18.89,99.17 C19.82,107.67 26.63,123.92 53.83,123.92 C88.93,123.92 90.47,103.06 94.54,95.08 C98.33,87.65 108.1,74.37 113.96,72.53 C117.75,71.34 117.77,64.05 115.85,61.92 C114.36,60.27 111.48,59.31 108.07,59.31 C106.27,59.31 104.31,59.58 102.34,60.15 C98.99,61.12 93.82,70.05 89.95,73.4 C89.59,73.71 89.18,73.85 88.78,73.85 C87.78,73.85 86.84,73.01 86.95,71.85 C87.94,61 91.15,21.1 91.15,21.1 C91.67,15.79 88.86,11.2 83.69,11.2 L83.49,11.2 C79.29,11.29 76.57,15.08 76.12,19.57 L71.74,55.34 C71.69,55.81 71.33,56.16 70.9,56.16 L70.88,56.16 L70.86,56.16 C70.4,56.15 70.03,55.74 70.03,55.25 L69.03,13.39 C69.03,8.88 67.05,4.85 62.9,4.21 C62.48,4.12 62.07,4.09 61.67,4.09 Z" fill="#E6B77E"/>
  <path d="M87.122,70.052 C86.895,72.473 86.754,74.067 86.74,74.44 C88.01,75.208 89.791,73.782 91.759,71.568 L91.86,71.7 C93.75,71.43 94.56,74.32 92.66,74.59 C79.75,76.43 69.08,85.52 65.4,98.07 C64.86,99.93 63.03,99.35 63.57,97.49 C67.218,85.017 74.939,73.299 87.122,70.052 Z" fill="#E6B77E"/>
</svg>
